X: 17546
T: Himmelfahrts
R: polka
M: 2/4
K: Fmajor
!mf! .c.c|:A2 (Bc)|!<(! A2 (Bc)!<)!|!f! e>e (ed)|B4|e>e (ed)|B4|d>d dc|A2!mf! .c.c|
A2 (Bc)|!<(! A2 (Bc)!<)!|!f! e>e (ed)|B4|e>e (ed)|B.d .c.B|.A z B2|1 A z cc:|2 A!mf!(e fe)||
K:C
|:e>d d2|z (d ed)|d>c c2|z (c dc)|B2p!<(! G2!<)!|A2 B2|!f! c>d e2|z!mf! (e fe)|
e>d d2|z (d ed)|d>c c2|z (c dc)|!<(! B3 e!<)!|e2 d2|1 !f! c4-|c!mf!e fe:|2 !f! c4-|c z z2||
K:F
S A2 (Bc)|!<(! A2 ((Bc))!<)!|!f! e>e (ed)|B4|e>e (ed)|B4|d>d dc|A2!mf! .c.c|
A2 (Bc)|!<(! A2 (Bc)!<)!|!f! e>e (ed)|B4|e>e (ed)|B.d .c.B|.A z F_E|
K:Bb
|:(D2 F)B|(d2 cB)|(A2 G>)F|A3 A|(A2 G>)F|A3 A|B2 FD|B3 F|
(D2 F)B|(d2 cB)|(A2 G>)F|A3 A|(A2 G>)F|(AF) GA|B z (AG/)A/|1 B z FE:|2 B z z2||

